X:400
T:Reel 400
M:4/4
K:Dmaj
L:1/8
AG|FDEC A,DDC|A,>D (3DCD A,B,GF| (3CCC EC FGED|CB,B,A GFEG|FDEC A,DD2|FDFA d2AG|FDEC DFEC|A,B,CD EFGE|F| (3ABA AG F2FG|AGAB cAGF|EA, (3A,A,A, EA,CD|ECCB, CDEG|AABc BAFA|ABAF GECE|A2 (3ABc dBAF|EDB,D EFGE|
